packages/ffe-icons/icons/filled/sm/radio_button_checked.svg

<svg xmlns="http://www.w3.org/2000/svg" height="20" viewBox="0 -960 960 960" width="20"><path d="M480.226-308.001q71.696 0 121.735-50.265 50.038-50.264 50.038-121.96t-50.265-121.735q-50.264-50.038-121.96-50.038t-121.735 50.265q-50.038 50.264-50.038 121.96t50.265 121.735q50.264 50.038 121.96 50.038Zm.117 192q-75.112 0-141.48-28.42-66.369-28.42-116.182-78.21-49.814-49.791-78.247-116.087t-28.433-141.673q0-75.378 28.42-141.246 28.42-65.869 78.21-115.682 49.791-49.814 116.087-78.247t141.673-28.433q75.378 0 141.246 28.42 65.869 28.42 115.682 78.21 49.814 49.791 78.247 115.853t28.433 141.173q0 75.112-28.42 141.48-28.42 66.369-78.21 116.182-49.791 49.814-115.853 78.247t-141.173 28.433Z"/></svg>

<svg xmlns="http://www.w3.org/2000/svg" height="20" viewBox="0 -960 960 960" width="20"><path d="M480.23-308q71.69 0 121.73-50.27Q652-408.53 652-480.23q0-71.69-50.27-121.73Q551.47-652 479.77-652q-71.69 0-121.73 50.27Q308-551.47 308-479.77q0 71.69 50.27 121.73Q408.53-308 480.23-308Zm.11 192q-75.11 0-141.48-28.42-66.37-28.42-116.18-78.21-49.81-49.79-78.25-116.09Q116-405.01 116-480.39q0-75.38 28.42-141.25t78.21-115.68q49.79-49.81 116.09-78.25Q405.01-844 480.39-844q75.38 0 141.25 28.42t115.68 78.21q49.81 49.79 78.25 115.85Q844-555.45 844-480.34q0 75.11-28.42 141.48-28.42 66.37-78.21 116.18-49.79 49.81-115.85 78.25Q555.45-116 480.34-116Z"/></svg>
